X: 20541
M: 2/4
L: 1/16
K: D
|: de |\
fdec dcBA | Aeed e2de | fdec dcBA | Aeed e2de |\
fdec dcBA | Aeed e2d2 | dfed dcBA | Aeec d2 :|


